X:1
T:Christ Is Coming
T:Christ Is Coming
T:Peter Philip Bilhorn
T:Peter Philip Bilhorn, 1898
T:Public Domain Courtesy of the Cyber Hymnal™
T:Public Domain Courtesy of the Cyber Hymnal™
C:Peter Philip Bilhorn
Z:Public Domain
Z:Courtesy of the Cyber Hymnal™
%%score 1 ( 2 3 )
L:1/8
Q:1/4=93
M:4/4
K:C
V:1 treble 
V:2 bass 
V:3 bass 
V:1
 [EG][EG] | [Ec]<[Ec] [Ec][Ec] [Fd][Ec][GB][FA] | [EG]4 [CE]2 [B,D][CE] | %3
w: 1.~Christ is|com- ing, and all na- tions shall be-|hold Him; Ev- ery|
w: 2.~Christ is|com- ing, not as once— a man of|sor- row— But as|
w: 3.~Christ is|com- ing, oh, what rap- ture to be-|hold Him! Robed in|
w: 4.~Christ is|com- ing, oh, my peo- ple, are you|rea- dy? Can you|
 [DF][DF][DF][DF] [DF][EG][FA][EG] | [CE]6 [CE][DF] | [EG]>[EG] [EG][EG] [Ec]2 [EG][EG] | %6
w: knee shall bow and call Him Lord and|king; Ev- ery|tongue shall then con- fess Of His|
w: king of earth and Hea- ven He shall|reign; War and|strife and greed shall cease, O- ver|
w: splen- dor and in glo- ry He shall|be; Dark- est|night shall flee a- pace At the|
w: meet the Lord if He should come to-|night? Will you|hear the words, “Well done,” Or the|
 [FA][FA][FA][FA] [^Fd]2 [Fc][Fc] | [GB]<[GB] [GB][GB] [GB][Af] [Ge]>[Fd] | [Ec]6 |: %9
w: love and right- eous- ness; He is|com- ing, all His ran- somed home to|bring.|
w: all the earth be peace, He is|com- ing, Christ the Lamb for sin- ners|slain.|
w: bright- ness of His face, Hal- le-|lu- jah! He is com- ing soon for|me.|
w: aw- ful word, “Be- gone!” He is|com- ing in His glo- ry and His|might.|
"^Refrain" [Ge]>[^F^d] | [Ge]4 [Ec]2 [Fd]>[E^c] |1 [Fd]4 [FA]2 [FA]>[FA] | %12
w: |||
w: Christ is|com- ing, Christ is|com- ing, And His|
w: |||
w: |||
 [^Fd][Fd][Fd][Fd] [Fd][Fc][FB][FA] | [Fd]6 :|2 [FA][FA] || [EG]<[Ec] [Ge][Ec] [Fd][Fd][Ec][DB] | %16
w: ||||
w: right- eous- ness and glo- ry we shall|see;|He is|com- ing soon to wel- come you and|
w: ||||
w: ||||
 !fermata![Ec]6 |] %17
w: |
w: me.|
w: |
w: |
V:2
 [C,C][C,C] | [C,G,]<[C,G,] [C,G,][C,C] [C,C][C,C][C,C][C,C] | [C,C]4 [C,G,]2 [G,,G,][G,,G,] | %3
w: ~ ~|~ ~ ~ ~ ~ ~ ~ ~|~ ~ ~ ~|
 [G,,G,][G,,G,][G,,G,][G,,G,] [G,,G,][G,,G,][G,,G,][G,,G,] | [C,G,]6 [C,G,][C,G,] | %5
w: ~ ~ ~ ~ ~ ~ ~ ~|~ ~ ~|
 [C,C]>[C,C] [C,C][C,C] [C,G,]2 [C,C][C,C] | [F,C][F,C][F,C][F,C] [D,C]2 [D,A,][D,D] | %7
w: ~ ~ ~ ~ ~ ~ ~|~ ~ ~ ~ ~ ~ ~|
 [G,D]<[G,D] [G,D][G,D] [G,D][G,B,] [G,B,]>[G,B,] | [C,C]6 |: z2 | z2 [C,C][C,C] [C,C]<[C,C] z2 |1 %11
w: ~ ~ ~ ~ ~ ~ ~ ~|~||Christ is com- ing,|
 z2 [F,A,][F,A,] [F,A,]<[F,C] [F,C]>[F,C] | [D,C][D,C][D,A,][D,A,] [D,A,][D,A,][D,D][D,C] | %13
w: Christ is com- ing, ~ ~|~ ~ ~ ~ ~ ~ ~ ~|
 [G,,B,]2 [G,B,]>[G,B,] [G,B,]2 :|2 [F,C][F,C] || [G,C]<[G,C] [G,C][G,C] [G,B,][G,B,]G,G, | %16
w: ~ we shall see;|||
 !fermata![C,G,]6 |] %17
w: |
V:3
 x2 | x8 | x8 | x8 | x8 | x8 | x8 | x8 | x6 |: x2 | x8 |1 x8 | x8 | x6 :|2 x2 || x6 G,G, | x6 |] %17

